X: 39560
T: Teampall An Ghleanntáin
R: reel
M: 4/4
K: Dmajor
dcAG EF F2|AG G2 EF F2|dcAG EF F2|A2GE EDD2|
dcAG EF F2|AG G2 EF F2|AG G2 EF F2|A2GE EDAD||
(3EFG AB =c3B|Add2 efed|dcAG EF F2|A2GE EDAD|
(3EFG AB =c3B|Add2 efed|dcAG EFGE|A2GE EDD2||

